docs/img/icons/hero/web.svg

<svg width="56" height="56" viewBox="0 0 56 56" fill="none" xmlns="http://www.w3.org/2000/svg">
<path d="M18.8417 2.40607C33.0962 -2.78216 48.9005 4.58708 54.0887 18.8416C59.2769 33.096 51.9075 48.9003 37.6532 54.0887C23.3988 59.2768 7.59455 51.9073 2.40613 37.6531C-2.78208 23.3986 4.58723 7.59434 18.8417 2.40607ZM11.9882 45.824C17.4427 50.8244 25.0564 53.1983 32.6083 51.7713C28.6058 49.0744 25.16 45.7026 22.4608 41.9178L11.9882 45.824ZM25.9618 40.6434C28.5547 44.1364 31.8222 47.1479 35.6766 49.5682C37.0584 45.1949 37.6107 40.7462 37.3934 36.3885L25.9618 40.6434ZM40.8378 35.0877C41.2484 39.847 40.7916 44.6861 39.4061 49.4383C46.5291 45.6656 51.1501 38.6496 52.0194 30.9227L40.8378 35.0877ZM4.328 28.9285C4.38179 31.4106 4.84507 33.9802 5.74011 36.4393C6.61998 38.8566 7.84507 41.0541 9.39929 42.9901L20.4969 38.8563C17.9795 34.5333 16.2656 29.8236 15.4569 24.8787L4.328 28.9285ZM18.8329 23.6492C19.543 28.5829 21.2724 33.3346 23.9149 37.6121L37.0555 32.7352C36.2621 27.8318 34.5472 23.1214 31.9198 18.8856L18.8329 23.6492ZM35.2968 17.657C37.8407 21.9232 39.5808 26.5765 40.4159 31.4647L52.1815 27.0877C52.0482 24.7764 51.6042 22.3893 50.7548 20.0555C49.8597 17.5964 48.5629 15.3303 47.0087 13.3943L35.2968 17.657ZM16.4667 7.42365C9.80606 11.1697 5.51141 17.784 4.5321 25.0789L15.035 21.2557C14.6851 16.663 15.1607 12.0055 16.4667 7.42365ZM20.2343 7.13849C18.8637 11.4134 18.3071 15.7224 18.494 19.9969L29.8309 15.8699C27.2267 12.4756 24.0317 9.53219 20.2343 7.13849ZM44.3778 10.576C38.7792 5.4391 30.9151 3.15583 23.1737 4.84064C27.1762 7.53757 30.5652 10.8831 33.2909 14.6111L44.3778 10.576Z" fill="#00C35B"/>
</svg>

<svg width="56" height="56" fill="none" xmlns="http://www.w3.org/2000/svg"><path d="M18.842 2.406C33.096-2.782 48.9 4.587 54.089 18.842c5.188 14.254-2.181 30.058-16.436 35.247C23.4 59.277 7.595 51.907 2.406 37.653-2.782 23.4 4.587 7.594 18.842 2.406zm-6.854 43.418c5.455 5 13.068 7.374 20.62 5.947a39.81 39.81 0 01-10.147-9.853l-10.473 3.906zm13.974-5.18c2.593 3.492 5.86 6.504 9.715 8.924a37.473 37.473 0 001.716-13.18l-11.431 4.255zm14.876-5.556a39.108 39.108 0 01-1.432 14.35A24.01 24.01 0 0052.02 30.923l-11.181 4.165zm-36.51-6.16A23.58 23.58 0 005.74 36.44c.88 2.418 2.105 4.615 3.66 6.551l11.097-4.134a40.813 40.813 0 01-5.04-13.977L4.328 28.93zm14.505-5.279a36.454 36.454 0 005.082 13.963l13.14-4.877c-.793-4.903-2.508-9.614-5.135-13.85L18.833 23.65zm16.464-5.992c2.544 4.266 4.284 8.92 5.119 13.808l11.766-4.377a24.735 24.735 0 00-1.427-7.033 23.582 23.582 0 00-3.746-6.66l-11.712 4.262zM16.467 7.424C9.807 11.17 5.51 17.784 4.532 25.079l10.503-3.823c-.35-4.593.126-9.25 1.432-13.832zm3.767-.286a36.648 36.648 0 00-1.74 12.859l11.337-4.127a36.646 36.646 0 00-9.597-8.732zm24.144 3.438a23.85 23.85 0 00-21.204-5.735 40.789 40.789 0 0110.117 9.77l11.087-4.035z" fill="#00C35B"/></svg>
